packages/kaspersky-hexa-ui-icons/src/iconsSVGs/32/Pc.svg

<svg xmlns="http://www.w3.org/2000/svg" width="32" height="32" fill="none" viewBox="0 0 32 32"><path fill="#000" fill-rule="evenodd" d="M6 4C4.3431 4 3 5.3431 3 7v13c0 1.6569 1.3431 3 3 3h7v4h-2c-.5523 0-1 .4477-1 1s.4477 1 1 1h10c.5523 0 1-.4477 1-1s-.4477-1-1-1h-2v-4h7c1.6569 0 3-1.3431 3-3V7c0-1.6569-1.3431-3-3-3zm11 19v4h-2v-4zm9-2c.5523 0 1-.4477 1-1V7c0-.5523-.4477-1-1-1H6c-.5523 0-1 .4477-1 1v13c0 .5523.4477 1 1 1z"/></svg>

<svg width="32" height="32" viewBox="0 0 32 32" fill="none" xmlns="http://www.w3.org/2000/svg">
<path fill-rule="evenodd" clip-rule="evenodd" d="M6 4C4.34315 4 3 5.34315 3 7V20C3 21.6569 4.34315 23 6 23H9.5H13V27H11C10.4477 27 10 27.4477 10 28C10 28.5523 10.4477 29 11 29H21C21.5523 29 22 28.5523 22 28C22 27.4477 21.5523 27 21 27H19V23H22.5H26C27.6569 23 29 21.6569 29 20V7C29 5.34315 27.6569 4 26 4H6ZM17 23V27H15V23H17ZM26 21C26.5523 21 27 20.5523 27 20V7C27 6.44771 26.5523 6 26 6H6C5.44772 6 5 6.44772 5 7V20C5 20.5523 5.44772 21 6 21H26Z" fill="black"/>
</svg>
